X: 39589
T: Teelin, The
R: reel
M: 4/4
K: Bmixolydian
B2FE DB,B,C|~=D2AD BDAD|=dBAF ~E2=DE|FB~B2 Fedc|
~B3E DB,B,C|~=D2AD BDAD|=dBAF (3EFE =DE|1 FBBA Bedc:|2 FBBF B3 c||
K:Bm
~d2ce dfec|~A2EA fAeA|dAfA dAdf|afef dBBc|
~d2ce dfec|~A2EA fAeA|faef dBBe|^dBB^A B3c:|B4||

